X:2
T:Octatonic Major intervals
M:none
L:1/1
Q:1/1=80
%%MIDI program 71 % Clarinet
K:C
CD_EF_G_A=A=Bc|[C_G][C_A][C=A][C=B]|[D_G][D_A][D=A][D=B]|[_E_G][_E_A][_E=A][_E=B]|[F_G][F_A][F=A][F=B]|
w:	      | TT   m6   M6   M7  | M3   TT   P5   M6  |  m3    P4    TT    m6  | m2   m3   M3   P4  |m

